svg/fluentui-system-icons/ic_fluent_call_inbound_16_regular.svg

<svg width="16" height="16" viewBox="0 0 16 16" fill="none" xmlns="http://www.w3.org/2000/svg">
<path d="M13.8539 2.14645C14.0491 2.34171 14.0491 2.65829 13.8539 2.85355L10.7074 6H12.5026C12.7788 6 13.0026 6.22386 13.0026 6.5C13.0026 6.77614 12.7788 7 12.5026 7H9.50032C9.22417 7 9.00032 6.77614 9.00032 6.5V3.5C9.00032 3.22386 9.22417 3 9.50032 3C9.77646 3 10.0003 3.22386 10.0003 3.5V5.29289L13.1468 2.14645C13.342 1.95118 13.6586 1.95118 13.8539 2.14645ZM4.37432 2.11972C5.22535 1.79978 6.17963 2.18481 6.57033 3.00577L7.15473 4.23376C7.40365 4.7568 7.32916 5.37642 6.96338 5.82556L6.01841 6.9859C6.03217 7.05631 6.05119 7.14297 6.077 7.24155C6.15152 7.52609 6.27983 7.89902 6.49367 8.26515C6.7076 8.63143 6.96899 8.92619 7.17971 9.13059C7.25133 9.20005 7.31616 9.25819 7.36997 9.30425L8.87619 9.0276C9.37238 8.93646 9.88115 9.10086 10.2302 9.46511L11.0389 10.309C11.7111 11.0106 11.6832 12.1254 10.9766 12.7924L10.6806 13.0719C9.55463 14.1347 7.80091 14.3617 6.54598 13.3186C5.60617 12.5374 4.47771 11.439 3.62827 10.1058C2.68742 8.6291 2.24817 6.87524 2.04007 5.55515C1.80275 4.04963 2.76081 2.72631 4.11117 2.21865L4.37432 2.11972ZM7.23649 9.83713C6.94762 10.2452 6.94743 10.2451 6.94743 10.2451L6.9456 10.2438L6.94258 10.2416L6.93359 10.2351C6.92632 10.2298 6.91652 10.2226 6.90442 10.2134C6.88022 10.1951 6.84675 10.1692 6.80579 10.1358C6.72399 10.0693 6.61168 9.97276 6.48345 9.84837C6.22846 9.60103 5.90257 9.23589 5.63017 8.7695C5.35768 8.30296 5.19976 7.83904 5.10963 7.49489C5.0643 7.32181 5.03541 7.17628 5.01764 7.07214C5.00874 7.01999 5.0026 6.97801 4.99855 6.94789C4.99653 6.93283 4.99503 6.92071 4.99398 6.91176L4.99272 6.90071L4.99232 6.89701L4.99217 6.89563C4.99217 6.89563 4.99206 6.89455 5.48946 6.84361L4.99206 6.89455C4.97855 6.76262 5.01801 6.63072 5.10176 6.52788L6.18799 5.19409C6.30991 5.04437 6.33474 4.83783 6.25177 4.66349L5.66736 3.43549C5.49992 3.08365 5.09095 2.91864 4.72622 3.05576L4.46307 3.15469C3.47835 3.52489 2.87675 4.44076 3.02787 5.39944C3.22662 6.66022 3.63723 8.25883 4.47164 9.56847C5.24494 10.7822 6.28914 11.8047 7.1852 12.5495C7.9887 13.2174 9.17359 13.1192 9.99413 12.3447L10.2902 12.0652C10.593 11.7794 10.605 11.3016 10.3169 11.0009L9.50818 10.157C9.39183 10.0356 9.22224 9.98077 9.05684 10.0111L7.32681 10.3289C7.19431 10.3532 7.05739 10.3229 6.94743 10.2451L7.23649 9.83713Z" fill="#212121"/>
</svg>

<svg xmlns="http://www.w3.org/2000/svg" width="16" height="16"><path d="M13.854 2.146a.5.5 0 0 1 0 .708L10.707 6h1.796a.5.5 0 1 1 0 1H9.5a.5.5 0 0 1-.5-.5v-3a.5.5 0 1 1 1 0v1.793l3.147-3.147a.5.5 0 0 1 .707 0Zm-9.48-.026a1.75 1.75 0 0 1 2.196.886l.585 1.228a1.5 1.5 0 0 1-.192 1.592l-.945 1.16a4.13 4.13 0 0 0 .475 1.28 4.133 4.133 0 0 0 .877 1.038l1.506-.276a1.5 1.5 0 0 1 1.354.437l.809.844a1.75 1.75 0 0 1-.062 2.483l-.296.28c-1.126 1.063-2.88 1.29-4.135.247-.94-.782-2.068-1.88-2.918-3.213-.94-1.477-1.38-3.23-1.588-4.55-.237-1.506.72-2.83 2.071-3.337l.263-.1Zm2.862 7.717-.289.408-.001-.001-.003-.002-.01-.007a1.76 1.76 0 0 1-.127-.1A5.132 5.132 0 0 1 5.63 8.77a5.129 5.129 0 0 1-.636-1.857L4.993 6.9v-.005l.496-.052-.497.05a.5.5 0 0 1 .11-.366l1.086-1.334a.5.5 0 0 0 .064-.53l-.585-1.229a.75.75 0 0 0-.94-.38l-.264.1c-.985.37-1.586 1.286-1.435 2.244.199 1.261.61 2.86 1.444 4.17.773 1.213 1.817 2.236 2.713 2.98.804.668 1.989.57 2.81-.204l.295-.28A.75.75 0 0 0 10.317 11l-.809-.844a.5.5 0 0 0-.451-.146l-1.73.318a.5.5 0 0 1-.38-.084l.29-.408Z"/></svg>
